svgs/light/joint.svg

<svg xmlns="http://www.w3.org/2000/svg" viewBox="0 0 640 512"><!-- Font Awesome Pro 6.0.0-alpha2 by @fontawesome - https://fontawesome.com License - https://fontawesome.com/license (Commercial License) --><path d="M591.955 352H263.318C173.76 352 85.949 374.824 8 418.049C-2.727 423.996 -2.727 440.004 8 445.951C85.949 489.176 173.76 512 263.318 512H591.955C618.465 512 639.955 490.51 639.955 464V400C639.955 373.49 618.465 352 591.955 352ZM263.318 480C189.443 480 116.943 463.5 50.693 432C110.818 403.375 176.193 387.875 243.068 385.125L324.318 480H263.318ZM366.568 480L284.318 384H400.318L482.568 480H366.568ZM607.955 464C607.955 472.836 600.793 480 591.955 480H524.818L442.568 384H591.955C600.793 384 607.955 391.164 607.955 400V464ZM454.346 156.812C490.424 183.844 511.955 226.938 511.955 272C511.955 280.844 519.111 288 527.955 288S543.955 280.844 543.955 272C543.955 216.906 517.643 164.281 473.564 131.188C437.486 104.156 415.955 61.062 415.955 16C415.955 7.156 408.799 0 399.955 0S383.955 7.156 383.955 16C383.955 71.094 410.268 123.719 454.346 156.812ZM550.346 156.812C586.424 183.844 607.955 226.938 607.955 272C607.955 280.844 615.111 288 623.955 288S639.955 280.844 639.955 272C639.955 216.906 613.643 164.281 569.564 131.188C533.486 104.156 511.955 61.062 511.955 16C511.955 7.156 504.799 0 495.955 0S479.955 7.156 479.955 16C479.955 71.094 506.268 123.719 550.346 156.812Z"/></svg>

<svg xmlns="http://www.w3.org/2000/svg" viewBox="0 0 640 512"><!--! Font Awesome Pro 6.3.0 by @fontawesome - https://fontawesome.com License - https://fontawesome.com/license (Commercial License) Copyright 2023 Fonticons, Inc. --><path d="M592 352H263.4c-89.56 0-177.4 22.83-255.3 66.05c-10.73 5.947-10.73 21.95 0 27.9C85.99 489.2 173.8 512 263.4 512H592c26.51 0 48-21.49 48-48v-64C640 373.5 618.5 352 592 352zM263.4 480c-73.88 0-146.4-16.5-212.6-48c60.13-28.62 125.5-44.13 192.4-46.88L324.4 480H263.4zM366.6 480l-82.25-96h116l82.25 96H366.6zM608 464c0 8.836-7.162 16-16 16h-67.14l-82.25-96H592c8.838 0 16 7.164 16 16V464zM454.4 156.8C490.5 183.8 512 226.9 512 272C512 280.8 519.2 288 528 288S544 280.8 544 272c0-55.09-26.31-107.7-70.39-140.8C437.5 104.2 416 61.06 416 16C416 7.156 408.8 0 400 0S384 7.156 384 16C384 71.09 410.3 123.7 454.4 156.8zM550.4 156.8C586.5 183.8 608 226.9 608 272C608 280.8 615.2 288 624 288S640 280.8 640 272c0-55.09-26.31-107.7-70.39-140.8C533.5 104.2 512 61.06 512 16C512 7.156 504.8 0 496 0S480 7.156 480 16C480 71.09 506.3 123.7 550.4 156.8z"/></svg>
